lib/img/icons/ui/add-attachment.svg

<svg aria-hidden="true" class="icon icon-add-attachment" width="32" height="32" viewBox="0 0 32 32" version="1.1">
  <path fill="rgb(0, 0, 0)" d="M2 2v28h28v-28h-28zM26 26h-20v-20h20v20zM14 24h4v-6h6v-4h-6v-6h-4v6h-6v4h6z"></path>
</svg>

<svg class="icon icon-add-attachment svg-icon" width="32" height="32" viewBox="0 0 32 32">
    <path d="M2 2v28h28V2H2zm24 24H6V6h20v20zm-12-2h4v-6h6v-4h-6V8h-4v6H8v4h6z"/>
</svg>
